X:1
T:Penzance, 87.87
T:Penzance, 87.87
T:H. Roach, 1889
T:Public Domain Courtesy of the Cyber Hymnal™
C:H. Roach, 1889
Z:Public Domain
Z:Courtesy of the Cyber Hymnal™
%%score ( 1 2 ) ( 3 4 )
L:1/8
Q:1/4=110
M:2/4
K:F
V:1 treble 
V:2 treble 
V:3 bass 
V:4 bass 
V:1
 [FA]2 B2 | [Cc]2 [Fc]2 | [GB]2 [FA]2 | [FA]2 [EG]2 | [FA]2 [F=B]2 | [Gc]2 [Ad]2 | e2 z x3 | %7
 [Ec]4 | [Fd]2 [^Fc]2 | [GB]2 [Dd]2 | [Gc]2 [EB]2 | [GB]2 [FA]2 | [Ff]2 [Fc]2 | B2 (AG) | %14
 [FA]2 [EG]2 x | F4 |] %16
V:2
 x2 (ED) | x4 | x4 | x4 | x4 | x4 | G3 d2 F | x4 | x4 | x4 | x4 | x4 | x4 | (FE) F2 | x5 | F4 |] %16
V:3
 [F,C]2 [G,B,]2 | A,2 [A,C]2 | [E,C]2 [F,C]2 | [C,C]2 [C,C]2 | [F,C]2 [D,G,]2 | [E,G,]2 [F,C]2 | %6
 [G,C]2 [G,=B,]2 x2 | [C,C]4 | _B,2 [A,C]2 | [G,D]2 [F,A,]2 | [E,G,]2 [C,C]2 | [F,C]2 [F,C]2 | %12
 [F,A,]2 [A,C]2 | [G,C]2 ([F,C][B,,D]) | C3 z B, | [F,A,]4 |] %16
V:4
 x4 | A,2 x2 | x4 | x4 | x4 | x4 | x6 | x4 | _B,2 x2 | x4 | x4 | x4 | x4 | x4 | C,2 C,2 x | x4 |] %16

